assets/images/script/n-7-e3.svg

<svg fill="none" height="241" viewBox="0 0 137 241" width="137" xmlns="http://www.w3.org/2000/svg"><path d="m125.942 7.69592c10.259 0-20.509-.54567-30.7623-.88616-18.4382-.61234-36.8819-1.08695-55.3218-1.64574-8.2717-.25065-16.5384-.65738-24.8126-.82286-1.9459-.03892-9.83158 1.03789-11.83662-.63298-.54127-.45105 3.31483-.55025 3.79785-.37978 8.43397 2.97671 15.57157 13.964 19.93867 20.9514 12.119 19.3904 18.3783 43.0599 23.5466 65.0697 3.9567 16.8505 6.8738 33.9155 9.0515 51.0805 2.0922 16.491 4.6803 44.219 2.0888 60.828-1.3333 8.546-5.266 24.914-15.0647 28.104-10.2914 3.351-14.8448-9.628-16.5839-17.28-4.3969-19.346 1.3933-48.469 9.7478-65.891 11.1357-23.223 26.637-40.984 50.6378-51.1447 9.3632-3.964 24.9579-13.1449 33.5099-2.9117 13.469 16.1164 10.121 42.1274 8.975 62.2844-1.354 15.343-3.854 68.343-5.837 83.688" stroke="#000" stroke-linecap="round" stroke-width="5"/></svg>

<svg width="137" height="241" viewBox="0 0 137 241" fill="none" xmlns="http://www.w3.org/2000/svg">
<path d="M125.942 7.69592C136.201 7.69592 105.433 7.15025 95.1797 6.80976C76.7415 6.19742 58.2978 5.72281 39.8579 5.16402C31.5862 4.91337 23.3195 4.50664 15.0453 4.34116C13.0994 4.30224 5.21372 5.37905 3.20868 3.70818C2.66741 3.25713 6.52351 3.15793 7.00653 3.3284C15.4405 6.30511 22.5781 17.2924 26.9452 24.2798C39.0642 43.6702 45.3235 67.3397 50.4918 89.3495C54.4485 106.2 57.3656 123.265 59.5433 140.43C61.6355 156.921 64.2236 184.649 61.6321 201.258C60.2988 209.804 56.3661 226.172 46.5674 229.362C36.276 232.713 31.7226 219.734 29.9835 212.082C25.5866 192.736 31.3768 163.613 39.7313 146.191C50.867 122.968 66.3683 105.207 90.3691 95.0463C99.7323 91.0823 115.327 81.9014 123.879 92.1346C137.348 108.251 134 134.262 132.854 154.419C131.5 169.762 129 222.762 127.017 238.107" stroke="black" stroke-width="5" stroke-linecap="round"/>
</svg>
